FINK
CUT[IMMER LANGSAM VORAN IMMER LANGSAM VORAN]
REG[Europa, Mitteleuropa, Deutschland]
KEY[F0591  16  F 4/4]
MEL[5_.4  3__1_.11__+1_.7  6__4_.44__
    4_.3  2__2_1_5__5_4_  3__2_.21__
    5__  3__5__3__5__  6_5_4_3_4__
    4__  2__4_.42__4_.4  5_4_3_2_3__
    5_.4  3__1_.11__+1_.7  6__4_.44__
    4_.3  2__2_1_5__5_4_  3__2_.21__ //] >>
FCT[Soldaten - Lied, Landsturm, Spott]
